icon-themes/sifr_svg/cmd/sc_copy.svg

<svg viewBox="0 0 16 16" xmlns="http://www.w3.org/2000/svg"><path d="m2 2v8h4v-4h3v-4zm5 5v7h4l3-3v-4z" fill="#555753"/></svg>

<svg xmlns="http://www.w3.org/2000/svg" viewBox="0 0 16 16">
  <path
     style="fill:#555753"
     d="M 2 2 L 2 10 L 6 10 L 6 6 L 9 6 L 9 2 L 2 2 z M 7 7 L 7 14 L 11 14 L 14 11 L 14 7 L 7 7 z "
     />
</svg>
